svg/fluentui-system-icons/ic_fluent_device_eq_16_filled.svg

<svg width="16" height="16" viewBox="0 0 16 16" fill="none" xmlns="http://www.w3.org/2000/svg">
<path d="M8 2C8.41421 2 8.75 2.33579 8.75 2.75V13.25C8.75 13.6642 8.41421 14 8 14C7.58579 14 7.25 13.6642 7.25 13.25V2.75C7.25 2.33579 7.58579 2 8 2ZM10.75 4C11.1642 4 11.5 4.33579 11.5 4.75V11.25C11.5 11.6642 11.1642 12 10.75 12C10.3358 12 10 11.6642 10 11.25V4.75C10 4.33579 10.3358 4 10.75 4ZM6 4.75C6 4.33579 5.66421 4 5.25 4C4.83579 4 4.5 4.33579 4.5 4.75V11.25C4.5 11.6642 4.83579 12 5.25 12C5.66421 12 6 11.6642 6 11.25V4.75ZM13.75 6C14.1642 6 14.5 6.33579 14.5 6.75V9.25C14.5 9.66421 14.1642 10 13.75 10C13.3358 10 13 9.66421 13 9.25V6.75C13 6.33579 13.3358 6 13.75 6ZM3 6.75C3 6.33579 2.66421 6 2.25 6C1.83579 6 1.5 6.33579 1.5 6.75V9.25C1.5 9.66421 1.83579 10 2.25 10C2.66421 10 3 9.66421 3 9.25V6.75Z" fill="#212121"/>
</svg>

<svg xmlns="http://www.w3.org/2000/svg" width="16" height="16"><path d="M8 2a.75.75 0 0 1 .75.75v10.5a.75.75 0 0 1-1.5 0V2.75A.75.75 0 0 1 8 2Zm2.75 2a.75.75 0 0 1 .75.75v6.5a.75.75 0 0 1-1.5 0v-6.5a.75.75 0 0 1 .75-.75ZM6 4.75a.75.75 0 0 0-1.5 0v6.5a.75.75 0 0 0 1.5 0v-6.5ZM13.75 6a.75.75 0 0 1 .75.75v2.5a.75.75 0 0 1-1.5 0v-2.5a.75.75 0 0 1 .75-.75ZM3 6.75a.75.75 0 0 0-1.5 0v2.5a.75.75 0 0 0 1.5 0v-2.5Z"/></svg>
